X: 41470
T: Twopenny, The
R: jig
M: 6/8
K: Gdorian
|:GFD B2c|dBG GFD|GFD B2c|dBG GFD|
GFD B2c|dBG GFD|F3 f2d|~cAF FGA:|
|:d3 cdc|BcB ABA|GFD ~G2c|dBG GFD|
dBd cAc|B/c/dB ABG|FDF f2d|~cAF FGA:|

